X:1
T:6 Mélodies
T:Le Premier Jour de Mai
T:1. Le Premier Jour de Mai
T:Charles Gounod
T:Jean Passerat
T:6 Mélodies
T:OpenScore (CC0)
T:OpenScore (CC0)
T:OpenScore (CC0)
T:OpenScore (CC0)
T:OpenScore (CC0)
T:OpenScore (CC0)
T:OpenScore (CC0)
T:OpenScore (CC0)
T:OpenScore (CC0)
C:Charles Gounod
Z:Jean Passerat
Z:OpenScore (CC0)
%%score 1 { ( 2 5 ) | ( 3 4 ) }
L:1/8
Q:1/4=90
M:2/4
K:A
V:1 treble nm="Voice"
V:2 treble nm="Piano"
V:5 treble 
V:3 bass 
V:4 bass 
V:1
"^Andantino un poco allegretto" z4 | z4 | z4 | z4 | z4 | z4 | z4 | z4 |!p! z A d d | c c B e | %10
w: ||||||||Lais- sons le|lit et le som-|
 e A B c | c2 B z | z4 | z A d d | c c B e | e A B c | (c2 B2) | A2 z2 | z4 | z4 | z4 | B2 B c | %22
w: meil Cet- te jour-|né- e,||Pour nous l'au-|rore au front ver-|meil Est dé- jà|né- *|e||||Or que le|
 ^d e d c | B B c f | B B c f | B4- | B B c B | B4 | B B c B | B4 | %30
w: ciel est le plus|gai En ce gra-|ci- eux moi de|Mai, |_ Ai- mons mi-|gnon-|ne ai- mons mi-|gnon-|
[Q:1/4=85]"^rit. poco" e4[Q:1/4=80] | A B c2[Q:1/4=90]"^A tempo" | d d d c | B2 B f | e d c2 | %35
w: ne!|Con- ten- tons|no- tre~ar- dent dé-|sir, En ce|mon- de n'a|
 c B A2- | A[Q:1/4=82]"^ritard." B d[Q:1/4=75] c | (c/d/[Q:1/4=70]B/c/) B2[Q:1/4=67] | %38
w: du plai- sir|_ Qui ne s'en|don- * * * *|
[Q:1/4=90]"^Tempo" A2 z2 | z4 | z4 | z4 | z4 | z4 | z4 | z4 | z4 | z A d d | c c B e | e A B c | %50
w: ne.|||||||||Viens, bel- le!|viens te pro- me-|ner Dans ce bo-|
 c2 B z | z4 | z A d d | c c B e | e A B c | (c2 B2) | A2 z2 | z4 | z4 | z4 | B2 B c | ^d e d c | %62
w: ca- ge||En- tends les|ois- eaux jar- gon-|ner De leur ra-|ma- *|ge||||Mais é- cou-|te com- me sur|
 B B c f | B B c f | B4- | B B c B | B4- | B B c B | B4 |[Q:1/4=85]"^rit. poco" e4[Q:1/4=80] | %70
w: tous Le ros- si-|gnol est le plus|doux|_ Oui le plus|doux|_ Sans qu'il se|las-|se|
[Q:1/4=90]"^A tempo" A B c c | d2 d c | B2 B f | e d c2 | c B A2- | %75
w: Ou- bli- ons tout|deuil tout en-|nui Pour nous|ré- jou- ir|com- me lui|
[Q:1/4=85] A"^dim." B[Q:1/4=83] d c |[Q:1/4=80] (c/d/B/c/[Q:1/4=78] B2) |[Q:1/4=90]"^Tempo" A2 z2 | %78
w: _ Le temps se|pas- * * * *|se|
 z4 | z4 | z4 | z4 | z4 | z4 | z4 | z4 | z A d d | c c B e | e A B c | c2 B z | z4 | z A d d | %92
w: ||||||||Laiss- ons les|re- grets et les|pleurs A la vieil-|les- se||Jeu- nes il|
 c c B e | e A B c | (c2 B2) | A2 z2 | z4 | z4 | z4 | B2 B c | ^d e d c | B B c f | B B c f | B4- | %104
w: faut cueil- lir les|fleurs De la jeu-|nes- *|se||||Or que le|ciel est le plus|gai En ce gra-|ci- eux mois de|Mai|
 B B c B | B4 | B B c B | B4 | e4[Q:1/4=85][Q:1/4=82] | A B c2[Q:1/4=90]"^Tempo" | d d d c | %111
w: _ Aim- ons mi-|gnon-|ne ai- mons mi-|gnon-|ne!|Con- ten- tons|notre ar- dent dé-|
 B2 B f | e d c2 | c B A2- | A[Q:1/4=85]"^rit." B[Q:1/4=82] d c[Q:1/4=86] | %115
w: sir En ce|mon- de n'a|du plai- sir|_ Qui ne s'en|
[Q:1/4=78] (c/d/B/[Q:1/4=74]c/ B2) |[Q:1/4=90]"_Tempo"[Q:1/4=90] A2 z2 | z4 | z4 | z4 | z4 | z4 | %122
w: don- * * * *|ne.||||||
 z4 | z4 | z4 | z4 | z4 |] %127
w: |||||
V:2
!p! [Gd]/E/[Gd]/E/ [Ac]/E/[Ae]/E/ | [Gd]/E/[Gd]/E/ [Ac]/E/[Ae]/E/ | %2
 [Gd]/!<(!E/[dg]/G/ [dg]/G/[da]/A/ | [dg]/G/[df]/!<)!G/!>(! [Ae]/E/[Gd]/E/ | %4
 [Ac]/E/[Ac]/E/ [Ad]/E/[Ae]/E/!>)! | F2 G2 |!p! AF G2 | AF G2 | A/E/c/E/ B/E/B/E/ | %9
 A/E/e/E/ d/E/d/E/ | c/E/F/E/ G/E/A/E/ | A/E/A/E/ G/E/B/E/ | A/E/A/E/ G/E/d/E/ | %13
 c/E/c/E/ B/E/B/E/ | A/E/e/E/ d/E/d/E/ | c/E/F/E/ G/E/A/E/ | A/E/A/E/ G/E/d/E/ | %17
 c/E/c/E/ d/E/e/E/ | A/E/A/E/ G/E/d/E/ |!<(! c/E/e/A/ c/A/e/A/!<)! |!>(! a/A/g/A/ f/A/e/A/!>)! | %21
!p! (^d/!<(!A/d/A/ d/A/e/A/!<)! | f/A/g/A/ f/A/e/A/ | ^d/A/d/A/ e/A/e/A/ | ^d/A/d/A/ e/A/e/A/ | %25
 ^d/A/d/A/ e/A/d/A/) | ^d/A/d/A/ d/A/d/A/ | =d/A/d/"_dim."A/ e/A/d/A/ | (d/A/d/A/ d/A/d/A/ | %29
 d/A/c/A/ d/A/e/A/ | d/E/G/E/ A/E/B/E/) | c/E/G/E/ A/E/A/E/ | B/E/G/E/ B/E/A/E/ | %33
!<(! G/E/G/E/ (G/E/d/E/!<)! | c/E/B/E/ A/E/A/E/) | (e/G/d/G/ c/A/c/A/) | (c/F/d/F/ A/F/A/E/ | %37
 A/E/G/E/ G/E/A/E/) | A/E/A/E/ B/E/c/E/ | [Gd]/E/[Gd]/E/ [Ac]/E/[Ae]/E/ | %40
 [Gd]/E/[Gd]/E/ [Ac]/E/[Ae]/E/ |!<(! [Gd]/E/[dg]/G/ [dg]/G/[da]/A/!<)! | %42
 [dg]/G/[df]/G/ [Ae]/E/[Gd]/E/ |!>(! [Ac]/E/[Ac]/E/ [Ad]/E/[Ae]/E/!>)! | F2 G2 |!p! AF G2 | AF G2 | %47
 A/E/c/E/ B/E/B/E/ | A/E/e/E/ d/E/d/E/ | c/E/F/E/ G/E/A/E/ | A/E/A/"_cresc."E/ G/E/B/E/ | %51
 A/E/A/E/ G/E/d/E/ | c/E/c/E/ B/E/B/E/ | A/E/e/E/ d/E/d/E/ | c/E/F/E/ G/E/A/E/ | %55
 A/E/A/E/ G/E/d/E/ | c/"_cresc."E/c/E/ d/E/e/E/ | A/E/A/E/ G/E/d/E/ | c/E/e/A/ c/A/e/A/ | %59
 a/A/g/A/ f/A/e/A/ | (^d/A/d/A/ d/A/e/A/ | f/A/g/A/ f/A/e/A/) | (^d/A/d/A/ e/A/e/A/ | %63
 ^d/A/d/A/ e/A/d/A/) | (^d/A/d/A/ e/A/d/A/ | ^d/A/d/A/ d/A/d/A/) | (=d/A/d/A/ e/A/d/A/ | %67
 d/A/d/A/ d/A/d/A/) | (d/A/c/A/ d/A/e/A/ | d/E/G/E/ A/E/B/E/) | c/E/G/E/ A/E/A/E/ | %71
 B/E/G/E/ B/E/A/E/ |!<(! G/E/G/E/ (G/E/d/!<)!E/ | c/E/B/E/ A/E/A/E/) | (e/G/d/G/ c/A/c/A/) | %75
 (c/F/"_dim."d/F/ B/F/A/F/) | (A/E/A/E/ G/E/G/E/) | A/E/!>(!A/E/ B/E/c/E/!>)! | %78
!p! [Gd]/E/[Gd]/E/ [Ac]/E/[Ae]/E/ | [Gd]/E/[Gd]/E/ [Ac]/E/[Ae]/E/ | %80
!<(! [Gd]/E/[dg]/G/ [dg]/G/[da]/A/!<)! | [dg]/G/[df]/G/ [Ae]/E/[Gd]/E/ | %82
!>(! [Ac]/E/[Ac]/E/ [Ad]/E/[Ae]/E/!>)! | F2 G2 | AF G2 | AF G2 | A/E/c/E/ B/E/B/E/ | %87
 A/E/e/E/ d/E/d/E/ | c/E/F/E/ G/E/A/E/ | A/E/A/"_cresc."E/ G/E/B/E/ | A/E/A/E/ G/E/d/E/ | %91
!p! c/E/c/E/ B/E/B/E/ | A/E/e/E/ d/E/d/E/ | c/E/F/E/ G/E/A/E/ | A/E/A/E/ G/E/d/E/ | %95
 c/E/c/E/ d/E/e/E/ | A/E/A/E/ G/E/d/E/ | c/E/e/A/ c/A/e/A/ | a/A/g/A/ f/A/e/A/ | %99
 (^d/A/d/A/ d/A/e/A/ | f/A/g/A/ f/A/e/A/ | ^d/A/d/A/ e/A/e/A/) | (^d/A/^d/A/ e/A/e/A/ | %103
 ^d/A/d/A/ e/A/d/A/) | (^d/A/!>(!d/A/ d/A/d/A/!>)! |!pp! =d/A/d/A/ e/A/d/A/) | (d/A/d/A/ d/A/d/A/ | %107
 d/A/c/A/ d/A/e/A/) | (d/E/"^rit.    poco"G/E/ A/E/B/E/) | c/E/G/E/ A/E/A/E/ | B/E/G/E/ B/E/A/E/ | %111
 G/E/!<(!G/E/ (G/E/d/E/!<)! | c/E/B/E/ A/E/A/E/) |!>(! (e/G/d/G/ c/A/c/A/)!>)! | %114
 (c/F/"_dim."d/F/ B/F/A/F/) | A/E/A/E/ G/E/G/E/ | A/E/!<(!A/E/ B/E/c/E/ | %117
 [Gd]/E/[Gd]/E/ [Ac]/E/[Ae]/!<)!E/ | [Gd]/E/[Gd]/E/ [Ac]/E/[Ae]/E/ | %119
!<(! [Gd]/E/[dg]/G/ [dg]/G/[da]/A/!<)! | [dg]/G/[df]/G/ [Ae]/E/[Gd]/E/ | %121
!>(! [Ac]/E/[Ac]/E/ [Ad]/E/[Ae]/E/!>)! | F2 G2 |!p!!>(! AF G2!>)! |!pp! AF G2 | A z A z | %126
 [CA] z z2 |] %127
V:3
 B,B,A,C | B,B,A,C | B,EEF | EDCB, | A,A,B,C | [B,,,B,,]2 [E,,E,]2 | [A,,E,]4 | [A,,E,]4 | %8
 [A,,E,]4 | [A,,E,]4 | [A,,E,]4 | [E,,E,]3 (D | C2 B,2 |!p! A,2) z2 | [A,,E,]4 | [A,,E,]4 | %16
 ([E,,E,]4 | E,)"_cresc." (A,B,C | C2 B,2 |!p! [A,,A,]) CA,C | FEDC | B,4 | B,4 | B,4 | B,4 | %25
[K:treble] z FGF | F4 | z =F=GF | =F4 |[K:bass] [E,-E]4 |"^rit. poco" [E,B,] (D,C,B,, | %31
 A,,)E,C,A,, | .G,,.E,,.A,,.C, | E,3 (E,, | F,,G,,A,,C,) | E,2 F,2 |"^ritard." [D,,D,]3 [D,,D,] | %37
 [E,,E,]4 | E,F,G,A, | B,B,A,C | B,B,A,C | B,EEF | EDCB, | A,A,B,C | [B,,,B,,]2 [E,,E,]2 | %45
 [A,,E,]4 | [A,,E,]4 | [A,,E,]4 | [A,,E,]4 | ([A,,E,]4 | [E,,E,]3) (D | C2 B,2 |!p! A,2) x2 | %53
 [A,,E,]4 | [A,,E,]4 | [E,,E,-]4 | [A,,E,] (A,B,C | C2 B,2 | [A,,A,])!p! CA,C | FEDC | B,4 | B,4 | %62
 B,4 | B,4 |[K:treble] z FGF | F4 | z =F =GF | =F4 |[K:bass] [E,E]4 | %69
"^rit. poco." [E,B,] (D,C,B,,) | .A,,.E,.C,.A,, | .G,,.E,,.A,,.C, | E,3 (E,, | F,,G,,A,,C,) | %74
 (E,2 F,2) | [D,,D,]3 [D,,D,] | [E,,E,]4 | E,F,G,A, | B,B,A,C | B,B,A,C | B,EEF | EDCB, | A,A,B,C | %83
 [B,,,B,,]2 [E,,E,]2 | [A,,E,]4 | [A,,E,]4 | [A,,E,]4 | [A,,E,]4 | [A,,E,]4 | [E,,E,]3 (D | %90
 C2 B,2 | A,2) z2 | [A,,E,]4 | [A,,E,]4 | [E,,E,-]4 | E, (A,B,C | C2 B,2 | [A,,A,]) CA,C | FEDC | %99
 B,4 | B,4 | B,4 | B,4 |[K:treble] z FGF | F4 | z =F=GF | =F4 |[K:bass] ([E,E]4 | %108
 [E,B,])"^rit.    poco." (D,C,B,, | .A,,).E,.C,.A,, | .G,,.E,,.A,,.C, | E,3 E,, | (F,,G,,A,,C,) | %113
 E,2 F,2 | [D,,D,]3 [D,,D,] | [E,,E,]4 | E,F,G,A, | B,B,A,C | B,B,A,C | B,EEF | EDCB, | A,A,B,C | %122
 [B,,,B,,]2 [E,,E,]2 | [A,,E,]4 | [A,,E,]4 | [A,,E,] z [A,,E,] z | [A,,E,] z z2 |] %127
V:4
 E,4 | E,4 | E,4 | E,4 | A,,4 | x4 | x4 | x4 | x4 | x4 | x4 | x4 | E,4 | [A,,E,]4 | x4 | x4 | x4 | %17
 A,, z z2 | E,4 | x4 | x4 | x4 | x4 | x4 | x4 |[K:treble] B,4- | B,2 B,2 | B,4- | B,2 B,2 | %29
[K:bass] x4 | x4 | x4 | x4 | x4 | x4 | x4 | x4 | x4 | A,,2 C,2 | E,4 | E,4 | E,4 | E,4 | A,,4 | %44
 x4 | x4 | x4 | x4 | x4 | x4 | x4 | E,4 | [A,,E,]4 | x4 | x4 | x4 | x z z2 | E,4 | x4 | x4 | x4 | %61
 x4 | x4 | x4 |[K:treble] B,4- | B,2 B,2 | B,4- | B,2 B,2 |[K:bass] x4 | x4 | x4 | x4 | x4 | x4 | %74
 x4 | x4 | x4 | A,,2 C,2 | E,4 | E,4 | E,4 | E,4 | A,,4 | x4 | x4 | x4 | x4 | x4 | x4 | x4 | E,4 | %91
 [A,,E,]4 | x4 | x4 | x4 | A,, z z2 | E,4 | x4 | x4 | x4 | x4 | x4 | x4 |[K:treble] B,4- | %104
 B,2 B,2 | B,4- | B,2 B,2 |[K:bass] x4 | x4 | x4 | x4 | x4 | x4 | x4 | x4 | x4 | A,,2 C,2 | E,4 | %118
 E,4 | E,4 | E,4 | A,,4 | x4 | x4 | x4 | x4 | x4 |] %127
V:5
 x4 | x4 | x4 | x4 | x4 | E/C/E/C/ D/B,/D/B,/ | C/E/D/E/ B,/E/B,/E/ | C/E/D/E/ B,/E/B,/E/ | %8
 C x x2 | x4 | x4 | x4 | x4 | x4 | x4 | x4 | x4 | x4 | x4 | x4 | x4 | x4 | x4 | x4 | x4 | x4 | x4 | %27
 x4 | x4 | x4 | x4 | x4 | x4 | x4 | x4 | x4 | x4 | x4 | x4 | x4 | x4 | x4 | x4 | x4 | %44
 E/C/E/C/ D/B,/D/B,/ | C/E/D/E/ B,/E/B,/E/ | C/E/D/E/ B,/E/B,/E/ | C x x2 | x4 | x4 | x4 | x4 | %52
 x4 | x4 | x4 | x4 | x4 | x4 | x4 | x4 | x4 | x4 | x4 | x4 | x4 | x4 | x4 | x4 | x4 | x4 | x4 | %71
 x4 | x4 | x4 | x4 | x4 | x4 | x4 | x4 | x4 | x4 | x4 | x4 | E/C/E/C/ D/B,/D/B,/ | %84
 C/E/D/E/ B,/E/B,/E/ | C/E/D/E/ B,/E/B,/E/ | C x x2 | x4 | x4 | x4 | x4 | x4 | x4 | x4 | x4 | x4 | %96
 x4 | x4 | x4 | x4 | x4 | x4 | x4 | x4 | x4 | x4 | x4 | x4 | x4 | x4 | x4 | x4 | x4 | x4 | x4 | %115
 x4 | x4 | x4 | x4 | x4 | x4 | x4 | E/C/E/C/ D/B,/D/B,/ | C/E/D/E/ B,/E/B,/E/ | %124
 C/E/D/E/ B,/E/B,/E/ | C/E/C/E/ C/E/C/E/ | x4 |] %127

